!!!!SEGMENT: pl-cz--iii-107--008_dankowski-adalbert--vesperae-es-et-exsultavit.krn
!!!cenid: 18xx:768
!!!COM: Dankowski, Adalbert
!!!COM-rismid: pe30000793
!!!CDT: ~1760-~1836
!!!CNT: Polish
!!!OPR: Vesperae Es
!!!OTL: Et exsultavit
!!!OMV: 008
!!!PDT: 1825
!!!AGN: Sacred; Vespers
!!!SMS-siglum: PL-CZ
!!!SMS-shelfmark: III-107
!!!SMS-shelfwork: 001-008 M
!!!SMS-variant:
!!!SMS-altvar:
!!!NIFC-rismid: 300000115
!!!system-decoration: [(s1,s2)][(s3,s4)][(s5,s6,s7,s8)][(s9,s10)]s11
**kern	**dynam	**kern	**dynam	**kern	**dynam	**kern	**text	**kern	**text	**kern	**text	**kern	**text	**kern	**kern	**kern	**kern	**dynam
*part11	*part11	*part10	*part10	*part9	*part9	*part8	*part8	*part7	*part7	*part6	*part6	*part5	*part5	*part4	*part3	*part2	*part1	*part1
*staff11	*	*staff10	*	*staff9	*	*staff8	*staff8	*staff7	*staff7	*staff6	*staff6	*staff5	*staff5	*staff4	*staff3	*staff2	*staff1	*
*Iorgan	*	*Ivioln	*	*Ivioln	*	*Iempty	*	*Itenor	*	*Ialto	*	*Isoprn	*	*Icor	*Icor	*Iempty	*Iclars	*
*I"Organo.	*	*I"Violino Secondo.	*	*I"Violino Primo	*	*I"Baſso	*	*I"Tenore	*	*I"Alto!	*	*I"Soprano.	*	*I"Corno Secondo in Dis Obligato.	*I"Corno Prymo in Dis Obligato	*I"Clarinetto Secundo in Dis	*I"Clarinetto Primo. in Dis.	*
*I'org	*	*I'vl II	*	*I'vl I	*	*I'B	*	*I'T	*	*I'A	*	*I'S	*	*I'cor II	*I'cor I	*I'cl II	*I'cl I	*
*clefF4	*	*clefG2	*	*clefG2	*	*clefF4	*	*clefC4	*	*clefC3	*	*clefC1	*	*clefG2	*clefG2	*clefG2	*clefG2	*
*	*	*	*	*	*	*	*	*	*	*	*	*	*	*ITrd5c9	*ITrd5c9	*ITrd1c2	*ITrd1c2	*
*k[b-e-a-]	*	*k[b-e-a-]	*	*k[b-e-a-]	*	*k[b-e-a-]	*	*k[b-e-a-]	*	*k[b-e-a-]	*	*k[b-e-a-]	*	*k[b-e-a-]	*k[b-e-a-]	*k[b-e-a-]	*k[b-e-a-]	*
*E-:	*	*E-:	*	*E-:	*	*E-:	*	*E-:	*	*E-:	*	*E-:	*	*E-:	*E-:	*E-:	*E-:	*
*M3/4	*	*M3/4	*	*M3/4	*	*M3/4	*	*M3/4	*	*M3/4	*	*M3/4	*	*M3/4	*M3/4	*M3/4	*M3/4	*
=1	=1	=1	=1	=1	=1	=1	=1	=1	=1	=1	=1	=1	=1	=1	=1	=1	=1	=1
*2\right	*	*2\right	*	*	*	*	*	*2\right	*	*	*	*2\right	*	*2\right	*2\right	*	*2\right	*
*	*	*tremolo	*	*	*	*	*	*	*	*	*	*	*	*	*	*	*	*
!!LO:TX:a:t=P:problem:all\right:global
!	!	!	!	!LO:TX:a:t=P:problem:niejednoznaczny zapis łuku	!	!	!	!	!	!	!	!	!	!	!	!	!	!
!LO:TX:a:Bi:t=Tutti	!	!	!	!	!	!LO:TX:a:t=P:problem:kolejność znaków E- BB- AA-	!	!LO:TX:a:t=P:problem:przy kluczu błędnie c- E- B-	!	!	!	!	!	!	!	!LO:TX:a:t=P:problem:partia błędnie podpisana [powinna być in B♭]	!LO:TX:a:t=P:problem:partia błędnie podpisana [powinna być in B♭]	!
!LO:TX:a:B:t=Allo	!	!LO:TX:b:B:t=Allo.	!	!LO:TX:a:B:t=Allo	!	!LO:TX:a:B:t=allo	!	!LO:TX:a:B:t=Allo	!	!LO:TX:a:B:t=Allo	!	!LO:TX:a:B:t=Allo	!	!LO:TX:a:B:t=Allo.	!LO:TX:a:B:t=Allo	!LO:TX:a:B:t=Allo	!LO:TX:a:B:t=Allo.	!
4E-\	.	16b-/LL	.	(16gg\LL	f	4E-\	Et	4B-\	Et	4g\	Et	4ee-\	Et	2e-\	2g\	2ee-\	2gg\	.
.	.	16b-/	.	16ff\	.	.	.	.	.	.	.	.	.	.	.	.	.	.
.	.	16b-/	.	16gg\	.	.	.	.	.	.	.	.	.	.	.	.	.	.
.	.	16b-/JJ	.	16aa-\JJ)	.	.	.	.	.	.	.	.	.	.	.	.	.	.
!	!	!	!	!	!	!	!	!	!	!	!	!LO:SIC:l:v:s= e-	!	!	!	!	!	!
4G\	.	16b-/LL	.	8gg\L	.	4G\	e-	4B-\	e-	4g\	e-	4ee-\	et	.	.	.	.	.
.	.	16b-/	.	.	.	.	.	.	.	.	.	.	.	.	.	.	.	.
.	.	16b-/	.	8ee-\	.	.	.	.	.	.	.	.	.	.	.	.	.	.
.	.	16b-/JJ	.	.	.	.	.	.	.	.	.	.	.	.	.	.	.	.
!	!	!	!	!	!	!	!	!	!	!LO:SIC:v:s=4f\	!	!	!	!	!	!	!	!
4B-\	.	16f/LL	.	8dd\	.	4B-\	-xul-	4B-\	-xul-	4g\	-xul-	4dd\	exul-	4B-/	4f\	4dd\	4ff\	.
.	.	16f/	.	.	.	.	.	.	.	.	.	.	.	.	.	.	.	.
.	.	16f/	.	8ff\J	.	.	.	.	.	.	.	.	.	.	.	.	.	.
.	.	16f/JJ	.	.	.	.	.	.	.	.	.	.	.	.	.	.	.	.
=2	=2	=2	=2	=2	=2	=2	=2	=2	=2	=2	=2	=2	=2	=2	=2	=2	=2	=2
!	!	!	!	!LO:TX:a:t=P:problem:niejednoznaczny zapis łuku	!	!	!	!	!	!	!	!	!	!	!	!	!	!
4E-\	.	16b-/LL	.	(16gg\LL	.	(4E-\	-ta-	2B-\	-ta-	2g\	-ta-	2ee-\	-ta-	4G/	4e-\	2ee-\	2gg\	.
.	.	16b-/	.	16ff\	.	.	.	.	.	.	.	.	.	.	.	.	.	.
.	.	16b-/	.	16gg\	.	.	.	.	.	.	.	.	.	.	.	.	.	.
.	.	16b-/JJ	.	16aa-\JJ)	.	.	.	.	.	.	.	.	.	.	.	.	.	.
4G\	.	16b-/LL	.	8gg\L	.	4G\)	.	.	.	.	.	.	.	4e-\	4g\	.	.	.
.	.	16b-/	.	.	.	.	.	.	.	.	.	.	.	.	.	.	.	.
.	.	16b-/	.	8ee-\	.	.	.	.	.	.	.	.	.	.	.	.	.	.
.	.	16b-/JJ	.	.	.	.	.	.	.	.	.	.	.	.	.	.	.	.
4B-\	.	16f/LL	.	8dd\	.	4B-\	-vit	4B-\	-vit	4f\	-vit	4dd\	-vit	4B-/	4f\	4dd\	4ff\	.
.	.	16f/	.	.	.	.	.	.	.	.	.	.	.	.	.	.	.	.
.	.	16f/	.	8ff\J	.	.	.	.	.	.	.	.	.	.	.	.	.	.
.	.	16f/JJ	.	.	.	.	.	.	.	.	.	.	.	.	.	.	.	.
=3	=3	=3	=3	=3	=3	=3	=3	=3	=3	=3	=3	=3	=3	=3	=3	=3	=3	=3
*	*	*	*	*	*	*	*	*	*	*	*ij	*	*ij	*	*	*	*	*
4E-\	.	16g/LL	.	8gg\L	.	4E-\	et	4B-\	spi-	4g\	Et	4ee-\	Et	4G/	4e-\	4ee-\	4gg\	.
.	.	16g/	.	.	.	.	.	.	.	.	.	.	.	.	.	.	.	.
.	.	16g/	.	8b-\	.	.	.	.	.	.	.	.	.	.	.	.	.	.
.	.	16g/JJ	.	.	.	.	.	.	.	.	.	.	.	.	.	.	.	.
4EE-/	.	16g/LL	.	8ee-\	.	4E-\	e-	4B-\	-ri-	4g\	e-	4ee-\	e-	4e-\	4g\	4ee-\	4gg\	.
.	.	16g/	.	.	.	.	.	.	.	.	.	.	.	.	.	.	.	.
.	.	16g/	.	8gg\	.	.	.	.	.	.	.	.	.	.	.	.	.	.
.	.	16g/JJ	.	.	.	.	.	.	.	.	.	.	.	.	.	.	.	.
4E-\	.	16b-/LL	.	8bb-\	.	4E-\	-xul-	4B-\	-tus	4g\	-xul-	4ee-\	-xul-	4e-\	4g\	4ee-\	4gg\	.
.	.	16b-/	.	.	.	.	.	.	.	.	.	.	.	.	.	.	.	.
.	.	16b-/	.	8gg\J	.	.	.	.	.	.	.	.	.	.	.	.	.	.
.	.	16b-/JJ	.	.	.	.	.	.	.	.	.	.	.	.	.	.	.	.
*	*	*Xtremolo	*	*	*	*	*	*	*	*	*	*	*	*	*	*	*	*
=4	=4	=4	=4	=4	=4	=4	=4	=4	=4	=4	=4	=4	=4	=4	=4	=4	=4	=4
.	.	.	.	16qqaa-/	.	.	.	.	.	.	.	.	.	.	.	.	.	.
4B-\	.	8ee-\L	.	8gg\L	.	4B-\	-ta-	4B-\	me-	4g\	-ta-	4ee-\	-ta-	4e-\	8g\L	4ee-\	4gg\	.
.	.	16dd\L	.	16ff\L	.	.	.	.	.	.	.	.	.	.	16f\L	.	.	.
.	.	16ee-\JJ	.	16gg\JJ	.	.	.	.	.	.	.	.	.	.	16g\JJ	.	.	.
4BB-/	.	4dd\	.	4ff\	.	4BB-/	-vit	4B-\	-us	4f\	-vit	4dd\	-vit	4B-/	4f\	4dd\	4ff\	.
*	*	*	*	*	*	*	*	*	*	*	*Xij	*	*Xij	*	*	*	*	*
4r	.	4r	.	4r	.	4r	.	4r	.	4r	.	4r	.	4r	4r	4r	4r	.
=5	=5	=5	=5	=5	=5	=5	=5	=5	=5	=5	=5	=5	=5	=5	=5	=5	=5	=5
*	*	*tremolo	*	*tremolo	*	*	*	*	*	*	*	*	*	*	*	*	*	*
!	!	!	!	!	!	!	!	!	!	!LO:TX:a:Bi:t=Solo.	!	!LO:TX:a:Bi:t=Solo	!	!	!	!LO:TX:a:Bi:t=Solo	!LO:TX:a:Bi:t=Solo	!
!LO:TX:a:Bi:t=4.	!	!	!	!	!	!LO:TX:a:Bi:t=5	!LO:TX:a:Bi:t=5.	!	!	!	!	!	!	!LO:TX:a:Bi:t=5.	!LO:TX:a:Bi:t=5	!	!	!
2.r	.	8B-/L	p	8B-/L	p	2.r	.	2.r	.	4.f\	Spi-	4.dd\	Spi-	2.r	2.r	4.dd\	4.ff\	.
.	.	8B-/	.	8B-/	.	.	.	.	.	.	.	.	.	.	.	.	.	.
.	.	8B-/	.	8B-/	.	.	.	.	.	.	.	.	.	.	.	.	.	.
.	.	8B-/	.	8B-/	.	.	.	.	.	8g\	-ri-	8ee-\	-ri-	.	.	8ee-\	8gg\	.
.	.	8B-/	.	8B-/	.	.	.	.	.	4a-\	-tus	4ff\	-tus	.	.	4ff\	4aa-\	.
.	.	8B-/J	.	8B-/J	.	.	.	.	.	.	.	.	.	.	.	.	.	.
=6	=6	=6	=6	=6	=6	=6	=6	=6	=6	=6	=6	=6	=6	=6	=6	=6	=6	=6
2.r	.	8B-/L	.	8B-/L	.	2.r	.	2.r	.	4g\	me-	4ee-\	me-	2.r	2.r	4ee-\	4gg\	.
.	.	8B-/	.	8B-/	.	.	.	.	.	.	.	.	.	.	.	.	.	.
.	.	8B-/	.	8B-/	.	.	.	.	.	4f\	-us	4dd\	-us	.	.	4dd\	4ff\	.
.	.	8B-/	.	8B-/	.	.	.	.	.	.	.	.	.	.	.	.	.	.
.	.	8B-/	.	8B-/	.	.	.	.	.	4a-\	in	4ff\	in	.	.	4ff\	4aa-\	.
.	.	8B-/J	.	8B-/J	.	.	.	.	.	.	.	.	.	.	.	.	.	.
=7	=7	=7	=7	=7	=7	=7	=7	=7	=7	=7	=7	=7	=7	=7	=7	=7	=7	=7
2.r	.	8B-/L	.	8B-/L	.	2.r	.	2.r	.	4g\	De-	4ee-\	de-	2.r	2.r	(4ee-\	4gg\	.
.	.	8B-/	.	8B-/	.	.	.	.	.	.	.	.	.	.	.	.	.	.
.	.	8B-/	.	8B-/	.	.	.	.	.	4f\	-o	4dd\	-o	.	.	4dd\)	4ff\	.
.	.	8B-/	.	8B-/	.	.	.	.	.	.	.	.	.	.	.	.	.	.
.	.	8B-/	.	8B-/	.	.	.	.	.	4a-\	Sa-	4ff\	Sa	.	.	4ff\	4aa-\	.
.	.	8B-/J	.	8B-/J	.	.	.	.	.	.	.	.	.	.	.	.	.	.
*	*	*Xtremolo	*	*Xtremolo	*	*	*	*	*	*	*	*	*	*	*	*	*	*
=8	=8	=8	=8	=8	=8	=8	=8	=8	=8	=8	=8	=8	=8	=8	=8	=8	=8	=8
2.r	.	4e-/	.	4e-/	.	2.r	.	2.r	.	8g\L	-lu-	8ee-\L	-lu-	2.r	2.r	(8ee-\L	8gg'\L	.
.	.	.	.	.	.	.	.	.	.	8b-\J	.	8gg\J	.	.	.	8gg\)	8bb-'\	.
.	.	4A-/	.	4A-/	.	.	.	.	.	8b-\L	-ta-	8gg\L	-ta-	.	.	(8gg\	(8bb-\	.
.	.	.	.	.	.	.	.	.	.	8a-\J	.	8ff\J	.	.	.	8ff\)	8aa-\)	.
.	.	4An/	.	4An/	.	.	.	.	.	8a-\L	-ri	8ff\L	-ri	.	.	8ff\	(8aa-\	.
.	.	.	.	.	.	.	.	.	.	8g\J	.	8ee-\J	.	.	.	8ee-\J	8gg\J)	.
=9	=9	=9	=9	=9	=9	=9	=9	=9	=9	=9	=9	=9	=9	=9	=9	=9	=9	=9
.	.	.	.	.	.	.	.	.	.	.	.	.	.	.	.	.	16qqaa-/	.
4r	.	4B-/	.	4B-/	.	2.r	.	2.r	.	4g\	me-	4ee-\	me-	2.r	2.r	4ee-\	8gg\L	.
.	.	.	.	.	.	.	.	.	.	.	.	.	.	.	.	.	16ff\L	.
.	.	.	.	.	.	.	.	.	.	.	.	.	.	.	.	.	16gg\JJ	.
8B-'\L	.	4B-/	.	4B-/	.	.	.	.	.	4f\	-o,	4dd\	-o,	.	.	4dd\	4ff\	.
8A-'\	.	.	.	.	.	.	.	.	.	.	.	.	.	.	.	.	.	.
8G'\	.	4r	.	4r	.	.	.	.	.	4r	.	4r	.	.	.	4r	4r	.
8F'\J	.	.	.	.	.	.	.	.	.	.	.	.	.	.	.	.	.	.
=10	=10	=10	=10	=10	=10	=10	=10	=10	=10	=10	=10	=10	=10	=10	=10	=10	=10	=10
*tremolo	*	*tremolo	*	*	*	*	*	*	*	*	*	*	*	*	*	*	*	*
!	!	!LO:TX:a:t=P:problem:1 ćwierćnuta z kropką	!	!	!	!	!	!	!	!	!	!	!	!	!	!	!	!
!	!	!LO:TX:a:t=P:problem:f = for.	!	!	!	!	!	!	!	!	!	!	!	!	!	!	!LO:N:vis=2	!
8E-\L	.	16b- 16g\LL	f	4gg 4b- 4e-/	.	2.E-\	in	2.B-\	in	2.g\	in	2.ee-\	in	2.e-\	2.g\	2.ee-\	2.gg\	.
.	.	16b- 16g\	.	.	.	.	.	.	.	.	.	.	.	.	.	.	.	.
8E-\	.	16b- 16g\	.	.	.	.	.	.	.	.	.	.	.	.	.	.	.	.
.	.	16b- 16g\JJ	.	.	.	.	.	.	.	.	.	.	.	.	.	.	.	.
8E-\	.	16b- 16g\LL	.	(16gg\LL	f	.	.	.	.	.	.	.	.	.	.	.	.	.
.	.	16b- 16g\	.	16aa-\	.	.	.	.	.	.	.	.	.	.	.	.	.	.
8E-\	.	16b- 16g\	.	16gg\	.	.	.	.	.	.	.	.	.	.	.	.	.	.
.	.	16b- 16g\JJ	.	16ff\JJ)	.	.	.	.	.	.	.	.	.	.	.	.	.	.
8E-\	.	16b- 16g\LL	.	8ee-\L	.	.	.	.	.	.	.	.	.	.	.	.	.	.
.	.	16b- 16g\	.	.	.	.	.	.	.	.	.	.	.	.	.	.	.	.
8E-\J	.	16b- 16g\	.	8gg\J	.	.	.	.	.	.	.	.	.	.	.	.	.	.
.	.	16b- 16g\JJ	.	.	.	.	.	.	.	.	.	.	.	.	.	.	.	.
*	*	*Xtremolo	*	*	*	*	*	*	*	*	*	*	*	*	*	*	*	*
=11	=11	=11	=11	=11	=11	=11	=11	=11	=11	=11	=11	=11	=11	=11	=11	=11	=11	=11
*	*	*^	*	*	*	*	*	*	*	*	*	*	*	*	*	*	*	*
*	*	*tremolo	*tremolo	*	*	*	*	*	*	*	*	*	*	*	*	*	*	*	*
!	!	!	!	!	!	!	!	!	!	!	!	!	!	!	!	!	!	!LO:N:vis=2	!
!	!	!	!LO:SIC:v:s=16f\LL	!	!	!	!	!	!	!	!	!	!	!	!	!	!	!	!
8BB-/L	.	16b-/LL	16g\LL	.	8ff\L	.	2B-\	De-	2B-\	De-	2f\	De-	2dd\	De-	2.B-/	2.f\	2.dd\	2.ff\	.
!	!	!	!LO:SIC:v:s=16f\	!	!	!	!	!	!	!	!	!	!	!	!	!	!	!	!
.	.	16b-/	16g\	.	.	.	.	.	.	.	.	.	.	.	.	.	.	.	.
!	!	!	!LO:SIC:v:s=16f\	!	!	!	!	!	!	!	!	!	!	!	!	!	!	!	!
8BB-/	.	16b-/	16g\	.	8dd\	.	.	.	.	.	.	.	.	.	.	.	.	.	.
!	!	!	!LO:SIC:v:s=16f\	!	!	!	!	!	!	!	!	!	!	!	!	!	!	!	!
.	.	16b-/	16g\	.	.	.	.	.	.	.	.	.	.	.	.	.	.	.	.
!	!	!	!LO:SIC:v:s=16f\	!	!	!	!	!	!	!	!	!	!	!	!	!	!	!	!
8BB-/	.	16b-/	16g\	.	8b-\	.	.	.	.	.	.	.	.	.	.	.	.	.	.
!	!	!	!LO:SIC:v:s=16f\	!	!	!	!	!	!	!	!	!	!	!	!	!	!	!	!
.	.	16b-/	16g\	.	.	.	.	.	.	.	.	.	.	.	.	.	.	.	.
!	!	!	!LO:SIC:v:s=16f\	!	!	!	!	!	!	!	!	!	!	!	!	!	!	!	!
8BB-/	.	16b-/	16g\	.	8dd\	.	.	.	.	.	.	.	.	.	.	.	.	.	.
!	!	!	!LO:SIC:v:s=16f\	!	!	!	!	!	!	!	!	!	!	!	!	!	!	!	!
.	.	16b-/	16g\	.	.	.	.	.	.	.	.	.	.	.	.	.	.	.	.
!	!	!	!LO:SIC:v:s=16f\	!	!	!	!	!	!	!	!	!	!	!	!	!	!	!	!
8BB-/	.	16b-/	16g\	.	8ff\	.	4B-\	-o	4B-\	-o	4f\	-o	4dd\	-o	.	.	.	.	.
!	!	!	!LO:SIC:v:s=16f\	!	!	!	!	!	!	!	!	!	!	!	!	!	!	!	!
.	.	16b-/	16g\	.	.	.	.	.	.	.	.	.	.	.	.	.	.	.	.
!	!	!	!LO:SIC:v:s=16f\	!	!	!	!	!	!	!	!	!	!	!	!	!	!	!	!
8BB-/J	.	16b-/	16g\	.	8aa-\J	.	.	.	.	.	.	.	.	.	.	.	.	.	.
!	!	!	!LO:SIC:v:s=16f\JJ	!	!	!	!	!	!	!	!	!	!	!	!	!	!	!	!
.	.	16b-/JJ	16g\JJ	.	.	.	.	.	.	.	.	.	.	.	.	.	.	.	.
=12	=12	=12	=12	=12	=12	=12	=12	=12	=12	=12	=12	=12	=12	=12	=12	=12	=12	=12	=12
*	*	*	*	*	*	*	*	*	*	*	*	*ij	*	*	*	*	*	*	*
!	!	!	!	!	!	!	!	!	!	!	!	!	!	!	!	!	!	!LO:N:vis=2	!
8E-\L	.	16b-/LL	16g\LL	.	4gg\	.	2.E-\	in	2.B-\	in	2.g\	in	2.ee-\	in	2.e-\	2.g\	2.ee-\	2.gg\	.
.	.	16b-/	16g\	.	.	.	.	.	.	.	.	.	.	.	.	.	.	.	.
8E-\	.	16b-/	16g\	.	.	.	.	.	.	.	.	.	.	.	.	.	.	.	.
.	.	16b-/	16g\	.	.	.	.	.	.	.	.	.	.	.	.	.	.	.	.
8E-\	.	16b-/	16g\	.	(16gg\LL	.	.	.	.	.	.	.	.	.	.	.	.	.	.
.	.	16b-/	16g\	.	16aa-\	.	.	.	.	.	.	.	.	.	.	.	.	.	.
8E-\	.	16b-/	16g\	.	16gg\	.	.	.	.	.	.	.	.	.	.	.	.	.	.
.	.	16b-/	16g\	.	16ff\JJ)	.	.	.	.	.	.	.	.	.	.	.	.	.	.
8E-\	.	16b-/	16g\	.	8ee-\L	.	.	.	.	.	.	.	.	.	.	.	.	.	.
.	.	16b-/	16g\	.	.	.	.	.	.	.	.	.	.	.	.	.	.	.	.
8E-\J	.	16b-/	16g\	.	8gg\J	.	.	.	.	.	.	.	.	.	.	.	.	.	.
.	.	16b-/JJ	16g\JJ	.	.	.	.	.	.	.	.	.	.	.	.	.	.	.	.
=13	=13	=13	=13	=13	=13	=13	=13	=13	=13	=13	=13	=13	=13	=13	=13	=13	=13	=13	=13
!	!	!LO:TX:a:t=P:problem:niejednoznaczny zapis wysokości w 2 warstwie	!	!	!	!	!	!	!	!	!	!	!	!	!	!	!	!LO:N:vis=2	!
8BB-/L	.	16b-/LL	16f\LL	.	8ff\L	.	2B-\	De-	2B-\	De-	2f\	De-	2dd\	De-	2.B-/	2.f\	2.dd\	2.ff\	.
.	.	16b-/	16f\	.	.	.	.	.	.	.	.	.	.	.	.	.	.	.	.
8BB-/	.	16b-/	16f\	.	8dd\J	.	.	.	.	.	.	.	.	.	.	.	.	.	.
.	.	16b-/	16f\	.	.	.	.	.	.	.	.	.	.	.	.	.	.	.	.
8BB-/	.	16b-/	16f\	.	8b-\L	.	.	.	.	.	.	.	.	.	.	.	.	.	.
.	.	16b-/	16f\	.	.	.	.	.	.	.	.	.	.	.	.	.	.	.	.
8BB-/	.	16b-/	16f\	.	8dd\	.	.	.	.	.	.	.	.	.	.	.	.	.	.
.	.	16b-/	16f\	.	.	.	.	.	.	.	.	.	.	.	.	.	.	.	.
8BB-/	.	16b-/	16f\	.	8ff\	.	4B-\	-o	4B-\	-o	4f\	-o	4dd\	-o	.	.	.	.	.
.	.	16b-/	16f\	.	.	.	.	.	.	.	.	.	.	.	.	.	.	.	.
8BB-/J	.	16b-/	16f\	.	8aa-\J	.	.	.	.	.	.	.	.	.	.	.	.	.	.
.	.	16b-/JJ	16f\JJ	.	.	.	.	.	.	.	.	.	.	.	.	.	.	.	.
*	*	*	*	*	*	*	*	*	*	*	*	*Xij	*	*	*	*	*	*	*
*Xtremolo	*	*	*	*	*	*	*	*	*	*	*	*	*	*	*	*	*	*	*
=14	=14	=14	=14	=14	=14	=14	=14	=14	=14	=14	=14	=14	=14	=14	=14	=14	=14	=14	=14
8E-\L	.	16b-/LL	16g\LL	.	4gg\	.	2E-\	sa-	2B-\	Sa-	2g\	Sa-	2ee-\	Sa-	4e-\	4g\	2.ee-\	2.gg\	.
.	.	16b-/	16g\	.	.	.	.	.	.	.	.	.	.	.	.	.	.	.	.
8E-\	.	16b-/	16g\	.	.	.	.	.	.	.	.	.	.	.	.	.	.	.	.
.	.	16b-/	16g\	.	.	.	.	.	.	.	.	.	.	.	.	.	.	.	.
8E-\	.	16b-/	16g\	.	16gg\LL	.	.	.	.	.	.	.	.	.	4e-\	4g\	.	.	.
.	.	16b-/	16g\	.	16aa-\	.	.	.	.	.	.	.	.	.	.	.	.	.	.
8E-\J	.	16b-/	16g\	.	16gg\	.	.	.	.	.	.	.	.	.	.	.	.	.	.
.	.	16b-/	16g\	.	16ff\JJ	.	.	.	.	.	.	.	.	.	.	.	.	.	.
8G\L	.	16b-/	16g\	.	8ee-\L	.	4G\	-lu-	4B-\	-lu-	4g\	-lu-	4ee-\	-lu-	4r	4r	.	.	.
.	.	16b-/	16g\	.	.	.	.	.	.	.	.	.	.	.	.	.	.	.	.
8G\J	.	16b-/	16g\	.	8b-\J	.	.	.	.	.	.	.	.	.	.	.	.	.	.
.	.	16b-/JJ	16g\JJ	.	.	.	.	.	.	.	.	.	.	.	.	.	.	.	.
*	*	*Xtremolo	*Xtremolo	*	*	*	*	*	*	*	*	*	*	*	*	*	*	*	*
*	*	*v	*v	*	*	*	*	*	*	*	*	*	*	*	*	*	*	*	*
=15	=15	=15	=15	=15	=15	=15	=15	=15	=15	=15	=15	=15	=15	=15	=15	=15	=15	=15
!	!	!	!	!	!	!	!	!	!	!	!	!	!	!LO:TX:a:Bi:t=4	!LO:TX:a:Bi:t=4	!	!	!
8A-\L	.	16cc\LL	.	16cc\LL	.	4A-\	-ta-	4e-\	-ta-	2.a-\	-ta-	2cc\	-ta-	2.r	2.r	4ee-\	2.aa-\	.
.	.	16cc\	.	16cc\	.	.	.	.	.	.	.	.	.	.	.	.	.	.
8A-\	.	16ee-\	.	16ee-\	.	.	.	.	.	.	.	.	.	.	.	.	.	.
.	.	16ee-\JJ	.	16ee-\JJ	.	.	.	.	.	.	.	.	.	.	.	.	.	.
8F\	.	16cc\LL	.	16cc\LL	.	(4F\	.	4f\	.	.	.	.	.	.	.	2ff\	.	.
.	.	16cc\	.	16cc\	.	.	.	.	.	.	.	.	.	.	.	.	.	.
8F\	.	16aa-\	.	16aa-\	.	.	.	.	.	.	.	.	.	.	.	.	.	.
.	.	16aa-\JJ	.	16aa-\JJ	.	.	.	.	.	.	.	.	.	.	.	.	.	.
8D\	.	16ff\LL	.	16ff\LL	.	4D\)	.	4B-\	.	.	.	4ff\	.	.	.	.	.	.
.	.	16ff\	.	16ff\	.	.	.	.	.	.	.	.	.	.	.	.	.	.
8D\J	.	16aa-\	.	16aa-\	.	.	.	.	.	.	.	.	.	.	.	.	.	.
.	.	16aa-\JJ	.	16aa-\JJ	.	.	.	.	.	.	.	.	.	.	.	.	.	.
=16	=16	=16	=16	=16	=16	=16	=16	=16	=16	=16	=16	=16	=16	=16	=16	=16	=16	=16
8G\L	.	16b-\LL	.	16b-\LL	.	(4G\	.	4d\	.	2.g\	.	2b-\	.	2.r	2.r	2dd\	2.gg\	.
.	.	16b-\	.	16b-\	.	.	.	.	.	.	.	.	.	.	.	.	.	.
8G\	.	16dd\	.	16dd\	.	.	.	.	.	.	.	.	.	.	.	.	.	.
.	.	16dd\JJ	.	16dd\JJ	.	.	.	.	.	.	.	.	.	.	.	.	.	.
8E-\	.	16b-\LL	.	16b-\LL	.	4E-\	.	4e-\	.	.	.	.	.	.	.	.	.	.
!	!	!LO:TX:a:t=P:problem:niezidentyfikowany symbol nad nutą	!	!	!	!	!	!	!	!	!	!	!	!	!	!	!	!
.	.	16b-\	.	16b-\	.	.	.	.	.	.	.	.	.	.	.	.	.	.
8E-\	.	16gg\	.	16gg\	.	.	.	.	.	.	.	.	.	.	.	.	.	.
.	.	16gg\JJ	.	16gg\JJ	.	.	.	.	.	.	.	.	.	.	.	.	.	.
8C\	.	16ee-\LL	.	16ee-\LL	.	4C\)	.	4A-\	.	.	.	4ee-\	.	.	.	4ee-\	.	.
.	.	16ee-\	.	16ee-\	.	.	.	.	.	.	.	.	.	.	.	.	.	.
8C\J	.	16gg\	.	16gg\	.	.	.	.	.	.	.	.	.	.	.	.	.	.
.	.	16gg\JJ	.	16gg\JJ	.	.	.	.	.	.	.	.	.	.	.	.	.	.
=17	=17	=17	=17	=17	=17	=17	=17	=17	=17	=17	=17	=17	=17	=17	=17	=17	=17	=17
8F\L	.	16a-\LL	.	16a-\LL	.	(4F\	.	4c\	.	2.f\	.	2a-\	.	2.r	2.r	4cc\	2.ff\	.
.	.	16a-\	.	16a-\	.	.	.	.	.	.	.	.	.	.	.	.	.	.
8F\	.	16cc\	.	16cc\	.	.	.	.	.	.	.	.	.	.	.	.	.	.
.	.	16cc\JJ	.	16cc\JJ	.	.	.	.	.	.	.	.	.	.	.	.	.	.
8D\	.	16a-\LL	.	16a-\LL	.	4D\	.	4d\	.	.	.	.	.	.	.	2dd\	.	.
.	.	16a-\	.	16a-\	.	.	.	.	.	.	.	.	.	.	.	.	.	.
8D\	.	16ff\	.	16ff\	.	.	.	.	.	.	.	.	.	.	.	.	.	.
.	.	16ff\JJ	.	16ff\JJ	.	.	.	.	.	.	.	.	.	.	.	.	.	.
8BB-\	.	16dd\LL	.	16dd\LL	.	4BB-\)	.	4G\	.	.	.	4dd\	.	.	.	.	.	.
.	.	16dd\	.	16dd\	.	.	.	.	.	.	.	.	.	.	.	.	.	.
8BB-\J	.	16ff\	.	16ff\	.	.	.	.	.	.	.	.	.	.	.	.	.	.
.	.	16ff\JJ	.	16ff\JJ	.	.	.	.	.	.	.	.	.	.	.	.	.	.
=18	=18	=18	=18	=18	=18	=18	=18	=18	=18	=18	=18	=18	=18	=18	=18	=18	=18	=18
8E-\L	.	16g\LL	.	16g\LL	.	(4E-\	.	4B-\	.	2.e-\	.	2g\	.	2.r	2.r	4b-\	2.ee-\	.
.	.	16g\	.	16g\	.	.	.	.	.	.	.	.	.	.	.	.	.	.
8E-\	.	16b-\	.	16b-\	.	.	.	.	.	.	.	.	.	.	.	.	.	.
.	.	16b-\JJ	.	16b-\JJ	.	.	.	.	.	.	.	.	.	.	.	.	.	.
8C\	.	16g\LL	.	16g\LL	.	4C/	.	4c\	.	.	.	.	.	.	.	2cc\	.	.
.	.	16g\	.	16g\	.	.	.	.	.	.	.	.	.	.	.	.	.	.
8C\	.	16ee-\	.	16ee-\	.	.	.	.	.	.	.	.	.	.	.	.	.	.
.	.	16ee-\JJ	.	16ee-\JJ	.	.	.	.	.	.	.	.	.	.	.	.	.	.
8AAn\	.	16cc\LL	.	16cc\LL	.	4AAn/)	.	4F/	.	.	.	4cc\	.	.	.	.	.	.
.	.	16cc\	.	16cc\	.	.	.	.	.	.	.	.	.	.	.	.	.	.
8AA\J	.	16ee-\	.	16ee-\	.	.	.	.	.	.	.	.	.	.	.	.	.	.
.	.	16ee-\JJ	.	16ee-\JJ	.	.	.	.	.	.	.	.	.	.	.	.	.	.
=19	=19	=19	=19	=19	=19	=19	=19	=19	=19	=19	=19	=19	=19	=19	=19	=19	=19	=19
*	*	*^	*	*	*	*	*	*	*	*	*	*	*	*	*	*	*	*
*tremolo	*	*tremolo	*tremolo	*	*	*	*	*	*	*	*	*	*	*	*	*	*	*	*
8BB-/L	.	16b-/LL	16f\LL	.	8dd\L	.	2BB-/	.	2B-\	.	2f\	.	2dd\	.	4BB-/	4B-/	4b-\	4dd\	.
.	.	16b-/	16f\	.	.	.	.	.	.	.	.	.	.	.	.	.	.	.	.
8BB-/	.	16b-/	16f\	.	8b-\J	.	.	.	.	.	.	.	.	.	.	.	.	.	.
.	.	16b-/	16f\	.	.	.	.	.	.	.	.	.	.	.	.	.	.	.	.
8BB-/	.	16b-/	16f\	.	(16dd\LL	.	.	.	.	.	.	.	.	.	4BB-/	4B-/	2dd\	4ff\	.
.	.	16b-/	16f\	.	16cc\	.	.	.	.	.	.	.	.	.	.	.	.	.	.
8BB-/	.	16b-/	16f\	.	16dd\	.	.	.	.	.	.	.	.	.	.	.	.	.	.
.	.	16b-/	16f\	.	16ee-\JJ)	.	.	.	.	.	.	.	.	.	.	.	.	.	.
8BB-/	.	16b-/	16f\	.	8ff\L	.	4B-\	-ri	4B-\	-ri	4f\	-ri	4dd\	-ri	4r	4r	.	4ff\	.
.	.	16b-/	16f\	.	.	.	.	.	.	.	.	.	.	.	.	.	.	.	.
8BB-/J	.	16b-/	16f\	.	8dd\J	.	.	.	.	.	.	.	.	.	.	.	.	.	.
.	.	16b-/JJ	16f\JJ	.	.	.	.	.	.	.	.	.	.	.	.	.	.	.	.
=20	=20	=20	=20	=20	=20	=20	=20	=20	=20	=20	=20	=20	=20	=20	=20	=20	=20	=20	=20
!	!	!LO:TX:a:t=P:problem:1 półnuta	!	!	!	!	!	!	!	!	!	!	!	!	!	!	!	!	!
8BB-/L	.	16b-/LL	16g\LL	.	8ee-\L	.	2B-\	sa-	2B-\	Sa-	2g\	me-	2ee-\	Sa-	4BB-/	4B-/	2.ee-\	2.gg\	.
.	.	16b-/	16g\	.	.	.	.	.	.	.	.	.	.	.	.	.	.	.	.
8BB-/	.	16b-/	16g\	.	8b-\	.	.	.	.	.	.	.	.	.	.	.	.	.	.
.	.	16b-/	16g\	.	.	.	.	.	.	.	.	.	.	.	.	.	.	.	.
8BB-/	.	16b-/	16g\	.	8gg\	.	.	.	.	.	.	.	.	.	8BB-/L	8B-/L	.	.	.
.	.	16b-/	16g\	.	.	.	.	.	.	.	.	.	.	.	.	.	.	.	.
8BB-/	.	16b-/	16g\	.	8ee-\	.	.	.	.	.	.	.	.	.	8BB-/	8B-/	.	.	.
.	.	16b-/	16g\	.	.	.	.	.	.	.	.	.	.	.	.	.	.	.	.
8BB-/	.	16b-/	16g\	.	8bb-\	.	4B-\	-lu-	4B-\	-lu-	4g\	.	4ee-\	-lu-	8BB-/	8B-/	.	.	.
.	.	16b-/	16g\	.	.	.	.	.	.	.	.	.	.	.	.	.	.	.	.
8BB-/J	.	16b-/	16g\	.	8gg\J	.	.	.	.	.	.	.	.	.	8BB-/J	8B-/J	.	.	.
.	.	16b-/JJ	16g\JJ	.	.	.	.	.	.	.	.	.	.	.	.	.	.	.	.
=21	=21	=21	=21	=21	=21	=21	=21	=21	=21	=21	=21	=21	=21	=21	=21	=21	=21	=21	=21
!	!	!LO:TX:a:t=P:problem:powtórka tt. 19-20 oznaczona znakami repetycji	!	!	!	!	!	!	!	!	!	!	!	!	!	!	!	!	!
8BB-/L	.	16b-/LL	16f\LL	.	4ff\	.	2B-\	-ta-	2B-\	-ta-	2f\	.	2dd\	-ta-	4BB-/	4B-/	2.dd\	2.ff\	.
.	.	16b-/	16f\	.	.	.	.	.	.	.	.	.	.	.	.	.	.	.	.
8BB-/	.	16b-/	16f\	.	.	.	.	.	.	.	.	.	.	.	.	.	.	.	.
.	.	16b-/	16f\	.	.	.	.	.	.	.	.	.	.	.	.	.	.	.	.
8BB-/	.	16b-/	16f\	.	(16dd\LL	.	.	.	.	.	.	.	.	.	4BB-/	4B-/	.	.	.
.	.	16b-/	16f\	.	16cc\	.	.	.	.	.	.	.	.	.	.	.	.	.	.
8BB-/	.	16b-/	16f\	.	16dd\	.	.	.	.	.	.	.	.	.	.	.	.	.	.
.	.	16b-/	16f\	.	16ee-\JJ)	.	.	.	.	.	.	.	.	.	.	.	.	.	.
8BB-/	.	16b-/	16f\	.	8ff\L	.	4B-\	-ri	4B-\	-ri	4f\	.	4dd\	-ri	4r	4r	.	.	.
.	.	16b-/	16f\	.	.	.	.	.	.	.	.	.	.	.	.	.	.	.	.
8BB-/J	.	16b-/	16f\	.	8dd\J	.	.	.	.	.	.	.	.	.	.	.	.	.	.
.	.	16b-/JJ	16f\JJ	.	.	.	.	.	.	.	.	.	.	.	.	.	.	.	.
=22	=22	=22	=22	=22	=22	=22	=22	=22	=22	=22	=22	=22	=22	=22	=22	=22	=22	=22	=22
!	!	!LO:TX:a:t=P:problem:1 półnuta	!	!	!	!	!	!	!	!	!	!	!	!	!	!	!	!	!
8BB-/L	.	16b-/LL	16g\LL	.	8ee-\L	.	2.B-\	me-	2.B-\	me-	2.g\	.	2.ee-\	me-	4BB-/	4B-/	2.ee-\	2.gg\	.
.	.	16b-/	16g\	.	.	.	.	.	.	.	.	.	.	.	.	.	.	.	.
8BB-/	.	16b-/	16g\	.	8b-\	.	.	.	.	.	.	.	.	.	.	.	.	.	.
.	.	16b-/	16g\	.	.	.	.	.	.	.	.	.	.	.	.	.	.	.	.
8BB-/	.	16b-/	16g\	.	8gg\	.	.	.	.	.	.	.	.	.	8BB-/L	8B-/L	.	.	.
.	.	16b-/	16g\	.	.	.	.	.	.	.	.	.	.	.	.	.	.	.	.
8BB-/	.	16b-/	16g\	.	8ee-\	.	.	.	.	.	.	.	.	.	8BB-/	8B-/	.	.	.
.	.	16b-/	16g\	.	.	.	.	.	.	.	.	.	.	.	.	.	.	.	.
8BB-/	.	16b-/	16g\	.	8bb-\	.	.	.	.	.	.	.	.	.	8BB-/	8B-/	.	.	.
.	.	16b-/	16g\	.	.	.	.	.	.	.	.	.	.	.	.	.	.	.	.
8BB-/J	.	16b-/	16g\	.	8gg\J	.	.	.	.	.	.	.	.	.	8BB-/J	8B-/J	.	.	.
.	.	16b-/JJ	16g\JJ	.	.	.	.	.	.	.	.	.	.	.	.	.	.	.	.
*Xtremolo	*	*Xtremolo	*Xtremolo	*	*	*	*	*	*	*	*	*	*	*	*	*	*	*	*
*	*	*v	*v	*	*	*	*	*	*	*	*	*	*	*	*	*	*	*	*
=23	=23	=23	=23	=23	=23	=23	=23	=23	=23	=23	=23	=23	=23	=23	=23	=23	=23	=23
!	!	!	!	!	!	!	!	!LO:SIC:l:v:s=-o	!	!	!	!	!	!	!	!	!	!
4BB-/	.	4b-\	.	4ff\	.	4B-\	-o	4B-\	-e	4f\	-o.	4dd\	-o	4BB-/	4B-/	4dd\	4ff\	.
4BB-/	.	4dd 4f/	.	4bb- 4dd 4f\	.	4r	.	4r	.	4r	.	4r	.	4BB-/	4B-/	4dd\	4ff\	.
4BB-/	.	4dd 4f/	.	4bb- 4dd 4f\	.	4r	.	4r	.	4r	.	4r	.	4BB-/	4B-/	4dd\	4ff\	.
=24	=24	=24	=24	=24	=24	=24	=24	=24	=24	=24	=24	=24	=24	=24	=24	=24	=24	=24
!	!	!	!	!	!	!LO:TX:a:Bi:t=14	!	!LO:TX:a:Bi:t=14	!	!LO:TX:a:Bi:t=14.	!	!LO:TX:a:Bi:t=1.	!	!	!	!	!	!
4BB-/	.	4dd 4f/	.	4bb- 4dd 4f\	.	2.r	.	2.r	.	2.r	.	2.r	.	4BB-/	4B-/	4dd\	4ff\	.
4r	.	4r	.	4r	.	.	.	.	.	.	.	.	.	4r	4r	4r	4r	.
4r	.	4r	.	4r	.	.	.	.	.	.	.	.	.	4r	4r	4r	4r	.
=25	=25	=25	=25	=25	=25	=25	=25	=25	=25	=25	=25	=25	=25	=25	=25	=25	=25	=25
!	!	!	!	!	!	!	!	!	!	!	!	!LO:TX:a:Bi:t=Solo	!	!	!	!	!	!
!	!	!	!	!	!	!	!	!	!	!	!	!	!	!LO:TX:a:Bi:t=15.	!LO:TX:a:Bi:t=15.	!LO:TX:a:Bi:t=13.	!LO:TX:a:Bi:t=13.	!
4BB-/	p	4f/	p	4dd\	p	2.r	.	2.r	.	2.r	.	4ff\	Qu-	2.r	2.r	2.r	2.r	.
4r	.	4r	.	4r	.	.	.	.	.	.	.	8gg\L	-ia	.	.	.	.	.
.	.	.	.	.	.	.	.	.	.	.	.	8ff\J	.	.	.	.	.	.
4r	.	4r	.	4r	.	.	.	.	.	.	.	8ee-\L	re-	.	.	.	.	.
.	.	.	.	.	.	.	.	.	.	.	.	8dd\J	.	.	.	.	.	.
=26	=26	=26	=26	=26	=26	=26	=26	=26	=26	=26	=26	=26	=26	=26	=26	=26	=26	=26
4AAn/	.	8r	.	8r	.	2.r	.	2.r	.	2.r	.	4cc\	-spe-	2.r	2.r	2.r	2.r	.
.	.	8f'/L	.	8f/L	.	.	.	.	.	.	.	.	.	.	.	.	.	.
4r	.	(8en/	.	8en/	.	.	.	.	.	.	.	4cc\	-xit	.	.	.	.	.
.	.	8f/)	.	8f/	.	.	.	.	.	.	.	.	.	.	.	.	.	.
4r	.	(8e/	.	8e/	.	.	.	.	.	.	.	4cc\	hu-	.	.	.	.	.
.	.	8f/J)	.	8f/J	.	.	.	.	.	.	.	.	.	.	.	.	.	.
=27	=27	=27	=27	=27	=27	=27	=27	=27	=27	=27	=27	=27	=27	=27	=27	=27	=27	=27
!LO:SIC:v:s=4AAn/	!	!LO:TX:a:t=P:problem:powtórka t. 26 oznaczona znakami repetycji	!	!	!	!	!	!	!	!	!	!	!	!	!	!	!	!
4AA-/	.	8r	.	8r	.	2.r	.	2.r	.	2.r	.	2cc\	-mi-	2.r	2.r	2.r	2.r	.
.	.	8f'/L	.	8f/L	.	.	.	.	.	.	.	.	.	.	.	.	.	.
4r	.	(8en/	.	8en/	.	.	.	.	.	.	.	.	.	.	.	.	.	.
.	.	8f/)	.	8f/	.	.	.	.	.	.	.	.	.	.	.	.	.	.
4r	.	(8e/	.	8e/	.	.	.	.	.	.	.	8dd\L	-li-	.	.	.	.	.
.	.	8f/J)	.	8f/J	.	.	.	.	.	.	.	8ee-\J	.	.	.	.	.	.
=28	=28	=28	=28	=28	=28	=28	=28	=28	=28	=28	=28	=28	=28	=28	=28	=28	=28	=28
4BB-/	.	8r	.	8r	.	2.r	.	2.r	.	2.r	.	8ee-\L	-ta-	2.r	2.r	2.r	2.r	.
.	.	8f`/L	.	8ff\L	.	.	.	.	.	.	.	8dd\J	.	.	.	.	.	.
4r	.	(8g/	.	8gg\	.	.	.	.	.	.	.	4dd\	-tem	.	.	.	.	.
.	.	8f/	.	8ff\	.	.	.	.	.	.	.	.	.	.	.	.	.	.
4r	.	8en/	.	8een\	.	.	.	.	.	.	.	4r	.	.	.	.	.	.
.	.	8f/J)	.	8ff\J	.	.	.	.	.	.	.	.	.	.	.	.	.	.
=29	=29	=29	=29	=29	=29	=29	=29	=29	=29	=29	=29	=29	=29	=29	=29	=29	=29	=29
4BB-/	.	4f/	.	4dd\	.	2.r	.	2.r	.	2.r	.	4ff\	hu-	2.r	2.r	2.r	2.r	.
4r	.	4r	.	4r	.	.	.	.	.	.	.	8gg\L	-mi-	.	.	.	.	.
.	.	.	.	.	.	.	.	.	.	.	.	8ff\J	.	.	.	.	.	.
4r	.	4r	.	4r	.	.	.	.	.	.	.	8ee-\L	-li-	.	.	.	.	.
.	.	.	.	.	.	.	.	.	.	.	.	8dd\J	.	.	.	.	.	.
=30	=30	=30	=30	=30	=30	=30	=30	=30	=30	=30	=30	=30	=30	=30	=30	=30	=30	=30
4AAn/	.	8r	.	8r	.	2.r	.	2.r	.	2.r	.	4cc\	-ta-	2.r	2.r	2.r	2.r	.
.	.	8f`/L	.	8f/L	.	.	.	.	.	.	.	.	.	.	.	.	.	.
!	!	!	!	!LO:TX:a:t=P:problem:niejednoznaczny zapis łuku	!	!	!	!	!	!	!	!	!	!	!	!	!	!
4r	.	(8en/	.	(8en/	.	.	.	.	.	.	.	4cc\	-tem	.	.	.	.	.
.	.	8f/)	.	8f/	.	.	.	.	.	.	.	.	.	.	.	.	.	.
4r	.	(8e/	.	8e/)	.	.	.	.	.	.	.	4cc\	an-	.	.	.	.	.
.	.	8f/J)	.	8f/J	.	.	.	.	.	.	.	.	.	.	.	.	.	.
=31	=31	=31	=31	=31	=31	=31	=31	=31	=31	=31	=31	=31	=31	=31	=31	=31	=31	=31
4AAn/	.	8r	.	8r	.	2.r	.	2.r	.	2.r	.	2cc\	-cil-	2.r	2.r	2.r	2.r	.
.	.	8f`/L	.	8f/L	.	.	.	.	.	.	.	.	.	.	.	.	.	.
!	!	!	!	!LO:TX:a:t=P:problem:niejednoznaczny zapis łuku	!	!	!	!	!	!	!	!	!	!	!	!	!	!
4r	.	(8en/	.	(8en/	.	.	.	.	.	.	.	.	.	.	.	.	.	.
.	.	8f/)	.	8f/	.	.	.	.	.	.	.	.	.	.	.	.	.	.
!	!	!	!	!	!	!	!	!	!	!	!	!LO:SIC:l:v:s=-ae	!	!	!	!	!	!
4r	.	(8e/	.	8e/)	.	.	.	.	.	.	.	8dd\L	-le	.	.	.	.	.
.	.	8f/J)	.	8f/J	.	.	.	.	.	.	.	8ee-\J	.	.	.	.	.	.
=32	=32	=32	=32	=32	=32	=32	=32	=32	=32	=32	=32	=32	=32	=32	=32	=32	=32	=32
4BB-/	.	8r	.	8r	.	2.r	.	2.r	.	2.r	.	8ee-\L	su-	2.r	2.r	2.r	2.r	.
.	.	8f`/L	.	8ff\L	.	.	.	.	.	.	.	8dd\J	.	.	.	.	.	.
!	!	!	!	!	!	!	!	!	!	!	!	!LO:SIC:l:v:s=-ae	!	!	!	!	!	!
4r	.	(8g/	.	8gg\	.	.	.	.	.	.	.	4dd\	-e	.	.	.	.	.
.	.	8f/)	.	8ff\	.	.	.	.	.	.	.	.	.	.	.	.	.	.
4r	.	(8en/	.	8een\	.	.	.	.	.	.	.	4r	.	.	.	.	.	.
.	.	8f/J)	.	8ff\J	.	.	.	.	.	.	.	.	.	.	.	.	.	.
=33	=33	=33	=33	=33	=33	=33	=33	=33	=33	=33	=33	=33	=33	=33	=33	=33	=33	=33
*	*	*tremolo	*	*	*	*	*	*	*	*	*	*	*	*	*	*	*	*
!LO:TX:a:Bi:t=5.	!	!	!	!	!	!	!	!	!	!	!	!	!	!	!	!	!	!
2.r	.	8B-/L	.	4dd\	.	2.r	.	2.r	.	2.r	.	4ff\	ec-	2.r	2.r	2.r	2.r	.
.	.	8B-/	.	.	.	.	.	.	.	.	.	.	.	.	.	.	.	.
.	.	8B-/	.	4gg\	.	.	.	.	.	.	.	4bb-\	.	.	.	.	.	.
.	.	8B-/	.	.	.	.	.	.	.	.	.	.	.	.	.	.	.	.
.	.	8B-/	.	4ee-X\	.	.	.	.	.	.	.	4gg\	-ce	.	.	.	.	.
.	.	8B-/J	.	.	.	.	.	.	.	.	.	.	.	.	.	.	.	.
=34	=34	=34	=34	=34	=34	=34	=34	=34	=34	=34	=34	=34	=34	=34	=34	=34	=34	=34
2.r	.	8B-/L	.	8dd\L	.	2.r	.	2.r	.	2.r	.	8ff\L	e-	2.r	2.r	2.r	2.r	.
.	.	8B-/	.	8cc\J	.	.	.	.	.	.	.	8ee-\J	.	.	.	.	.	.
.	.	8B-/	.	4b-\	.	.	.	.	.	.	.	4dd\	-nim	.	.	.	.	.
.	.	8B-/	.	.	.	.	.	.	.	.	.	.	.	.	.	.	.	.
.	.	8B-/	.	8r	.	.	.	.	.	.	.	8r	.	.	.	.	.	.
.	.	8B-/J	.	8dd\	.	.	.	.	.	.	.	8ff\	ex	.	.	.	.	.
*	*	*Xtremolo	*	*	*	*	*	*	*	*	*	*	*	*	*	*	*	*
=35	=35	=35	=35	=35	=35	=35	=35	=35	=35	=35	=35	=35	=35	=35	=35	=35	=35	=35
2.r	.	8B-/L	.	4dd\	.	2.r	.	2.r	.	2.r	.	4ff\	hoc	2.r	2.r	2.r	2.r	.
.	.	8B-/	.	.	.	.	.	.	.	.	.	.	.	.	.	.	.	.
.	.	8e-/	.	4cc\	.	.	.	.	.	.	.	4ee-\	be-	.	.	.	.	.
.	.	8e-/	.	.	.	.	.	.	.	.	.	.	.	.	.	.	.	.
.	.	8en/	.	4b-\	.	.	.	.	.	.	.	4dd\	-a-	.	.	.	.	.
.	.	8e/J	.	.	.	.	.	.	.	.	.	.	.	.	.	.	.	.
=36	=36	=36	=36	=36	=36	=36	=36	=36	=36	=36	=36	=36	=36	=36	=36	=36	=36	=36
2.r	.	4f/	.	4b-\	.	2.r	.	2.r	.	2.r	.	4dd\	-tam	2.r	2.r	2.r	2.r	.
.	.	4f/	.	4an\	.	.	.	.	.	.	.	4cc\	.	.	.	.	.	.
.	.	4r	.	4r	.	.	.	.	.	.	.	8r	.	.	.	.	.	.
.	.	.	.	.	.	.	.	.	.	.	.	8cc\	me	.	.	.	.	.
=37	=37	=37	=37	=37	=37	=37	=37	=37	=37	=37	=37	=37	=37	=37	=37	=37	=37	=37
!	!	!LO:TX:a:Bi:t=1.	!	!LO:TX:a:Bi:t=1.	!	!	!	!	!	!	!	!	!	!	!	!	!	!
2.r	.	2.r	.	2.r	.	2.r	.	2.r	.	2.r	.	4aa-\	di-	2.r	2.r	2.r	2.r	.
.	.	.	.	.	.	.	.	.	.	.	.	4ff\	-cent	.	.	.	.	.
.	.	.	.	.	.	.	.	.	.	.	.	4r	.	.	.	.	.	.
=38	=38	=38	=38	=38	=38	=38	=38	=38	=38	=38	=38	=38	=38	=38	=38	=38	=38	=38
!LO:TX:a:Bi:t=Tutti	!	!	!	!	!	!	!	!	!	!	!	!	!	!	!	!	!	!
4C\	.	4een 4g\	.	4een 4b- 4g/	f	4C/	o-	4c\	o-	4g\	o-	4een\	o-	2.r	2.r	4g/	4eeX\	f
4F\	.	4ff 4a-\	.	4ff 4a-/	.	4F\	-mnes	4c\	-mnes	4a-X\	-mnes,	4ff\	-mnes	.	.	4a-X/	4ff\	.
4r	.	4r	.	4r	.	4r	.	4r	.	4r	.	8r	.	.	.	4r	4r	.
.	.	.	.	.	.	.	.	.	.	.	.	8b-\	in	.	.	.	.	.
=39	=39	=39	=39	=39	=39	=39	=39	=39	=39	=39	=39	=39	=39	=39	=39	=39	=39	=39
!LO:TX:b:Bi:t=1.	!	!LO:TX:a:Bi:t=1.	!	!LO:TX:a:Bi:t=1.	!	!LO:TX:a:Bi:t=1	!	!LO:TX:a:Bi:t=1	!	!LO:TX:a:Bi:t=1.	!	!	!	!	!	!LO:TX:a:Bi:t=1.	!LO:TX:a:Bi:t=1.	!
2.r	.	2.r	.	2.r	.	2.r	.	2.r	.	2.r	.	4gg\	di-	2.r	2.r	2.r	2.r	.
.	.	.	.	.	.	.	.	.	.	.	.	4ee-X\	-cent	.	.	.	.	.
.	.	.	.	.	.	.	.	.	.	.	.	4r	.	.	.	.	.	.
=40	=40	=40	=40	=40	=40	=40	=40	=40	=40	=40	=40	=40	=40	=40	=40	=40	=40	=40
*	*	*	*	*	*	*	*	*	*	*	*ij	*	*	*	*	*	*	*
4BB-/	.	4dd 4f\	.	4dd 4f/	.	4BB-/	o-	4B-\	o-	4f\	o-	(4dd\	o-	4B-/	4f\	4f/	4dd\	.
4E-\	.	4ee-X 4g\	.	4ee-X 4g/	.	4E-\	-mnes	4B-\	-mnes	4g\	-mnes	4ee-\)	.	4e-\	4g\	4g/	4ee-\	.
*	*	*	*	*	*	*	*	*	*	*	*Xij	*	*	*	*	*	*	*
4r	.	4r	.	4r	.	4r	.	4r	.	4r	.	4b-`\	-mnes	4r	4r	4r	4r	.
=41	=41	=41	=41	=41	=41	=41	=41	=41	=41	=41	=41	=41	=41	=41	=41	=41	=41	=41
*	*	*tremolo	*	*tremolo	*	*	*	*	*	*	*	*	*	*	*	*	*	*
8E-\L	.	16gg\LL	.	16bb-\LL	.	(4E-\	ge-	2B-\	ge-	(4b-\	ge-	4gg\	ge-	4g\	4b-\	4gg\	4bb-\	.
.	.	16gg\	.	16bb-\	.	.	.	.	.	.	.	.	.	.	.	.	.	.
8E-\	.	16gg\	.	16bb-\	.	.	.	.	.	.	.	.	.	.	.	.	.	.
.	.	16gg\JJ	.	16bb-\JJ	.	.	.	.	.	.	.	.	.	.	.	.	.	.
8D\	.	16ff\LL	.	16aa-\LL	.	4D\)	.	.	.	4a-\)	.	4ff\	.	4f\	4a-\	4ff\	4aa-\	.
.	.	16ff\	.	16aa-\	.	.	.	.	.	.	.	.	.	.	.	.	.	.
8D\	.	16ff\	.	16aa-\	.	.	.	.	.	.	.	.	.	.	.	.	.	.
.	.	16ff\JJ	.	16aa-\JJ	.	.	.	.	.	.	.	.	.	.	.	.	.	.
8E-\	.	16ee-\LL	.	16gg\LL	.	4E-\	-ne-	4B-\	-ne-	4g\	-ne-	4ee-\	-ne-	4e-\	4g\	4ee-\	4gg\	.
.	.	16ee-\	.	16gg\	.	.	.	.	.	.	.	.	.	.	.	.	.	.
8E-\J	.	16ee-\	.	16gg\	.	.	.	.	.	.	.	.	.	.	.	.	.	.
.	.	16ee-\JJ	.	16gg\JJ	.	.	.	.	.	.	.	.	.	.	.	.	.	.
=42	=42	=42	=42	=42	=42	=42	=42	=42	=42	=42	=42	=42	=42	=42	=42	=42	=42	=42
*tremolo	*	*	*	*	*	*	*	*	*	*	*	*	*	*	*	*	*	*
8BB-/L	.	16dd\LL	.	16ff\LL	.	2B-\	-ra-	2c\	-ra-	(4f\	-ra-	4dd\	-ra-	4B-/	4f\	4dd\	4ff\	.
.	.	16dd\	.	16ff\	.	.	.	.	.	.	.	.	.	.	.	.	.	.
8BB-/	.	16dd\	.	16ff\	.	.	.	.	.	.	.	.	.	.	.	.	.	.
.	.	16dd\JJ	.	16ff\JJ	.	.	.	.	.	.	.	.	.	.	.	.	.	.
!	!	!	!	!	!	!	!	!	!	!	!	!	!	!	!LO:SIC:v:s=4g\	!	!	!
8BB-/	.	16ee-\LL	.	16gg\LL	.	.	.	.	.	4g\)	.	4ee-\	.	4e-\	4a-\	4ee-\	4gg\	.
.	.	16ee-\	.	16gg\	.	.	.	.	.	.	.	.	.	.	.	.	.	.
8BB-/	.	16ee-\	.	16gg\	.	.	.	.	.	.	.	.	.	.	.	.	.	.
.	.	16ee-\JJ	.	16gg\JJ	.	.	.	.	.	.	.	.	.	.	.	.	.	.
8BB-/	.	16ff\LL	.	16aa-\LL	.	4B-\	-ti-	4d\	-ti-	4a-\	-ti-	4ff\	-ti-	4f\	4a-\	4ff\	4aa-\	.
.	.	16ff\	.	16aa-\	.	.	.	.	.	.	.	.	.	.	.	.	.	.
8BB-/J	.	16ff\	.	16aa-\	.	.	.	.	.	.	.	.	.	.	.	.	.	.
.	.	16ff\JJ	.	16aa-\JJ	.	.	.	.	.	.	.	.	.	.	.	.	.	.
*Xtremolo	*	*	*	*	*	*	*	*	*	*	*	*	*	*	*	*	*	*
=43	=43	=43	=43	=43	=43	=43	=43	=43	=43	=43	=43	=43	=43	=43	=43	=43	=43	=43
!LO:TX:a:t=P:problem:mixed beam	!	!	!	!	!	!	!	!	!	!	!	!	!	!	!	!	!	!
8E-\L	.	16b-\LL	.	16gg\LL	.	4E-\	-o-	4e-\	-o-	4b-\	-o-	4gg\	-o-	2e-\	2g\	2ee-\	2gg\	.
.	.	16b-\	.	16gg\	.	.	.	.	.	.	.	.	.	.	.	.	.	.
8E-\	.	16b-\	.	16gg\	.	.	.	.	.	.	.	.	.	.	.	.	.	.
.	.	16b-\JJ	.	16gg\JJ	.	.	.	.	.	.	.	.	.	.	.	.	.	.
8B-\	.	16g/LL	.	16ee-\LL	.	4B-\	.	2B-\	.	4g\	.	4ee-\	.	.	.	.	.	.
.	.	16g/	.	16ee-\	.	.	.	.	.	.	.	.	.	.	.	.	.	.
8B-\	.	16g/	.	16ee-\	.	.	.	.	.	.	.	.	.	.	.	.	.	.
.	.	16g/JJ	.	16ee-\JJ	.	.	.	.	.	.	.	.	.	.	.	.	.	.
8BB-\	.	16f/LL	.	16dd\LL	.	4BB-/	.	.	.	4f\	.	4dd\	.	4B-/	4f\	4dd\	4ff\	.
.	.	16f/	.	16dd\	.	.	.	.	.	.	.	.	.	.	.	.	.	.
8BB-\J	.	16f/	.	16dd\	.	.	.	.	.	.	.	.	.	.	.	.	.	.
.	.	16f/JJ	.	16dd\JJ	.	.	.	.	.	.	.	.	.	.	.	.	.	.
*	*	*Xtremolo	*	*Xtremolo	*	*	*	*	*	*	*	*	*	*	*	*	*	*
=44	=44	=44	=44	=44	=44	=44	=44	=44	=44	=44	=44	=44	=44	=44	=44	=44	=44	=44
!	!	!	!	!	!	!	!	!	!	!	!	!LO:SIC:l:v:s=-nes	!	!	!	!	!	!
4E-\	.	4g/	p	4ee-\	p	4E-\	-nes	4B-\	-nes	4g\	-nes	4ee-\	-nis	4G/	4e-\	8ee-\	8gg\	.
.	.	.	.	.	.	.	.	.	.	.	.	.	.	.	.	8r	8r	.
!	!	!	!	!	!	!	!	!	!	!	!	!	!	!	!	!LO:TX:a:Bi:t=Solo	!	!
4r	.	4e-/	.	4e-/	.	4r	.	4r	.	4r	.	4r	.	4r	4r	8gg\L	8bb-\L	.
.	.	.	.	.	.	.	.	.	.	.	.	.	.	.	.	(16ff\L	(16aa-\L	.
.	.	.	.	.	.	.	.	.	.	.	.	.	.	.	.	16gg\JJ)	16bb-\JJ)	.
4r	.	4r	.	4r	.	4r	.	4r	.	4r	.	4r	.	4r	4r	8aa-X\L	8ccc'\L	.
.	.	.	.	.	.	.	.	.	.	.	.	.	.	.	.	8gg\J	8bb-'\J	.
=45	=45	=45	=45	=45	=45	=45	=45	=45	=45	=45	=45	=45	=45	=45	=45	=45	=45	=45
!LO:TX:a:Bi:t=3.	!	!	!	!	!	!	!	!LO:TX:a:Bi:t=3.	!	!LO:TX:a:Bi:t=3.	!	!LO:TX:a:Bi:t=3	!	!LO:TX:a:Bi:t=1.	!	!	!	!
2.r	.	4d/	.	4d/	.	2.r	.	2.r	.	2.r	.	2.r	.	2.r	2.r	8ff\	8aa-\	.
.	.	.	.	.	.	.	.	.	.	.	.	.	.	.	.	8r	8r	.
.	.	4d/	.	4d/	.	.	.	.	.	.	.	.	.	.	.	8ff\L	8aa-\L	.
.	.	.	.	.	.	.	.	.	.	.	.	.	.	.	.	(16ee-\L	(16gg\L	.
.	.	.	.	.	.	.	.	.	.	.	.	.	.	.	.	16ff\JJ)	16aa-\JJ)	.
.	.	4r	.	4r	.	.	.	.	.	.	.	.	.	.	.	8gg\L	8bb-'\L	.
.	.	.	.	.	.	.	.	.	.	.	.	.	.	.	.	8ff\J	8aa-'\J	.
=46	=46	=46	=46	=46	=46	=46	=46	=46	=46	=46	=46	=46	=46	=46	=46	=46	=46	=46
2.r	.	4e-/	.	4e-/	.	2.r	.	2.r	.	2.r	.	2.r	.	4r	4r	8ee-\	8gg\	.
.	.	.	.	.	.	.	.	.	.	.	.	.	.	.	.	8r	8r	.
!	!	!	!	!	!	!	!	!	!	!	!	!	!	!	!LO:TX:a:Bi:t=Solo	!	!	!
.	.	4e-/	.	4e-/	.	.	.	.	.	.	.	.	.	8g\L	8b-\L	8gg\L	(8bb-\L	.
.	.	.	.	.	.	.	.	.	.	.	.	.	.	8e-\	8g\	8ee-\	8gg\)	.
.	.	4r	.	4r	.	.	.	.	.	.	.	.	.	8a-\	8cc\	8aa-X\	(8ccc\	.
.	.	.	.	.	.	.	.	.	.	.	.	.	.	8g\J	8b-\J	8gg\J	8bb-\J)	.
=47	=47	=47	=47	=47	=47	=47	=47	=47	=47	=47	=47	=47	=47	=47	=47	=47	=47	=47
2.r	.	8a-/L	.	8a-/L	.	2.r	.	2.r	.	2.r	.	2.r	.	8g\L	8b-\L	8gg\L	8bb-\L	.
.	.	8a-/	.	8a-/	.	.	.	.	.	.	.	.	.	8f\J	8a-\J	8ff\J	8aa-\J	.
.	.	8b-/	.	8b-/	.	.	.	.	.	.	.	.	.	4e-\	4g\	4ee-\	4gg\	.
.	.	8b-/J	.	8b-/J	.	.	.	.	.	.	.	.	.	.	.	.	.	.
.	.	8B-/L	.	8B-/L	.	.	.	.	.	.	.	.	.	4B-/	4f\	4dd\	4ff\	.
.	.	8B-/J	.	8B-/J	.	.	.	.	.	.	.	.	.	.	.	.	.	.
=48	=48	=48	=48	=48	=48	=48	=48	=48	=48	=48	=48	=48	=48	=48	=48	=48	=48	=48
*tremolo	*	*tremolo	*	*	*	*	*	*	*	*	*	*	*	*	*	*	*	*
8E-\L	.	16g/LL	f	4e-/	f	2.E-\	di-	2.c\	di-	2.g\	di-	2.ee-\	di-	2.e-\	2.g\	2.ee-\	2.gg\	.
.	.	16g/	.	.	.	.	.	.	.	.	.	.	.	.	.	.	.	.
8E-\	.	16g/	.	.	.	.	.	.	.	.	.	.	.	.	.	.	.	.
.	.	16g/JJ	.	.	.	.	.	.	.	.	.	.	.	.	.	.	.	.
8E-\	.	16g/LL	.	(16ee-\LL	.	.	.	.	.	.	.	.	.	.	.	.	.	.
.	.	16g/	.	16dd\	.	.	.	.	.	.	.	.	.	.	.	.	.	.
8E-\	.	16g/	.	16ee-\	.	.	.	.	.	.	.	.	.	.	.	.	.	.
.	.	16g/JJ	.	16ff\JJ	.	.	.	.	.	.	.	.	.	.	.	.	.	.
8E-\	.	16g/LL	.	8ee-\L)	.	.	.	.	.	.	.	.	.	.	.	.	.	.
.	.	16g/	.	.	.	.	.	.	.	.	.	.	.	.	.	.	.	.
8E-\J	.	16g/	.	8b-\J	.	.	.	.	.	.	.	.	.	.	.	.	.	.
.	.	16g/JJ	.	.	.	.	.	.	.	.	.	.	.	.	.	.	.	.
*Xtremolo	*	*	*	*	*	*	*	*	*	*	*	*	*	*	*	*	*	*
=49	=49	=49	=49	=49	=49	=49	=49	=49	=49	=49	=49	=49	=49	=49	=49	=49	=49	=49
!LO:TX:a:t=P:problem:mixed beam	!	!	!	!	!	!	!	!	!	!	!	!	!	!	!	!	!	!
8A-\L	.	16e-/LL	.	8cc\L	.	(4A-\	-cent	4c\	-cent	(4a-\	.	4ff\	-cent	4f\	4a-\	4ff\	4aa-\	.
.	.	16e-/	.	.	.	.	.	.	.	.	.	.	.	.	.	.	.	.
8A-\	.	16e-/	.	8aa-\J	.	.	.	.	.	.	.	.	.	.	.	.	.	.
.	.	16e-/JJ	.	.	.	.	.	.	.	.	.	.	.	.	.	.	.	.
8B-\	.	16g/LL	.	8gg\L	.	4B-\)	.	2B-\	o-	4g\)	-cent	4ee-\	.	4e-\	4g\	4ee-\	4gg\	.
.	.	16g/	.	.	.	.	.	.	.	.	.	.	.	.	.	.	.	.
8B-\	.	16g/	.	8ee-\	.	.	.	.	.	.	.	.	.	.	.	.	.	.
.	.	16g/JJ	.	.	.	.	.	.	.	.	.	.	.	.	.	.	.	.
8BB-\	.	16f/LL	.	8ff\	.	4BB-/	o-	.	.	4f\	o-	4dd\	o-	4B-/	4f\	4dd\	4ff\	.
.	.	16f/	.	.	.	.	.	.	.	.	.	.	.	.	.	.	.	.
8BB-\J	.	16f/	.	8dd\J	.	.	.	.	.	.	.	.	.	.	.	.	.	.
.	.	16f/JJ	.	.	.	.	.	.	.	.	.	.	.	.	.	.	.	.
=50	=50	=50	=50	=50	=50	=50	=50	=50	=50	=50	=50	=50	=50	=50	=50	=50	=50	=50
*tremolo	*	*	*	*	*	*	*	*	*	*	*	*	*	*	*	*	*	*
8E-\L	.	16g/LL	.	4ee-\	.	4E-\	-mnes	4B-\	-mnes	4g\	-mnes	4ee-\	-mnes	2.e-\	2.g\	2.ee-\	2.gg\	.
.	.	16g/	.	.	.	.	.	.	.	.	.	.	.	.	.	.	.	.
8E-\	.	16g/	.	.	.	.	.	.	.	.	.	.	.	.	.	.	.	.
.	.	16g/JJ	.	.	.	.	.	.	.	.	.	.	.	.	.	.	.	.
8E-\	.	16g/LL	.	16ee-\LL	.	4E-\	ge-	4B-\	ge-	4g\	ge-	4ee-\	ge-	.	.	.	.	.
.	.	16g/	.	16dd\	.	.	.	.	.	.	.	.	.	.	.	.	.	.
8E-\	.	16g/	.	16ee-\	.	.	.	.	.	.	.	.	.	.	.	.	.	.
.	.	16g/JJ	.	16ff\JJ	.	.	.	.	.	.	.	.	.	.	.	.	.	.
8E-\	.	16g/LL	.	8ee-\L	.	4E-\	-ne-	4B-\	-ne-	4g\	-ne-	4ee-\	-ne-	.	.	.	.	.
.	.	16g/	.	.	.	.	.	.	.	.	.	.	.	.	.	.	.	.
8E-\J	.	16g/	.	8b-\J	.	.	.	.	.	.	.	.	.	.	.	.	.	.
.	.	16g/JJ	.	.	.	.	.	.	.	.	.	.	.	.	.	.	.	.
*Xtremolo	*	*	*	*	*	*	*	*	*	*	*	*	*	*	*	*	*	*
=51	=51	=51	=51	=51	=51	=51	=51	=51	=51	=51	=51	=51	=51	=51	=51	=51	=51	=51
!LO:TX:a:t=P:problem:mixed beam	!	!	!	!	!	!	!	!	!	!	!	!	!	!	!	!	!	!
8A-\L	.	16e-/LL	.	8cc\L	.	8A-\	-ra-	8c\	-ra-	8a-\	-ra-	8ff\	-ra-	4f\	4a-\	4ff\	4aa-\	.
.	.	16e-/	.	.	.	.	.	.	.	.	.	.	.	.	.	.	.	.
8A-\	.	16e-/	.	8aa-\J	.	8A-\	-ti-	8c\	-ti-	8a-\	-ti-	8ff\	-ti-	.	.	.	.	.
.	.	16e-/JJ	.	.	.	.	.	.	.	.	.	.	.	.	.	.	.	.
8B-\	.	16g/LL	.	8gg\L	.	4B-\	-o-	2B-\	-o-	4g\	-o-	4ee-\	-o-	4e-\	4g\	4ee-\	4gg\	.
.	.	16g/	.	.	.	.	.	.	.	.	.	.	.	.	.	.	.	.
8B-\	.	16g/	.	8ee-\	.	.	.	.	.	.	.	.	.	.	.	.	.	.
.	.	16g/JJ	.	.	.	.	.	.	.	.	.	.	.	.	.	.	.	.
8BB-\	.	16f/LL	.	8ff\	.	4BB-/	.	.	.	4f\	.	4dd\	.	4B-/	4f\	4dd\	4ff\	.
.	.	16f/	.	.	.	.	.	.	.	.	.	.	.	.	.	.	.	.
8BB-\J	.	16f/	.	8dd\J	.	.	.	.	.	.	.	.	.	.	.	.	.	.
.	.	16f/JJ	.	.	.	.	.	.	.	.	.	.	.	.	.	.	.	.
*	*	*Xtremolo	*	*	*	*	*	*	*	*	*	*	*	*	*	*	*	*
=52	=52	=52	=52	=52	=52	=52	=52	=52	=52	=52	=52	=52	=52	=52	=52	=52	=52	=52
4E-\	.	4g/	.	4ee-\	.	4E-\	-nes	4B-\	-nes	4g\	-nes.	4ee-\	-nes.	4G/	4e-\	4ee-\	4gg\	.
4E-\	.	4ee- 4g/	.	4gg 4b- 4e-/	.	4r	.	4r	.	4r	.	4r	.	4G/	4e-\	4b-\	4gg\	.
4E-\	.	4ee- 4g/	.	4gg 4b- 4e-/	.	4r	.	4r	.	4r	.	4r	.	4G/	4e-\	4b-\	4gg\	.
=53	=53	=53	=53	=53	=53	=53	=53	=53	=53	=53	=53	=53	=53	=53	=53	=53	=53	=53
!	!	!	!	!	!	!LO:TX:a:Bi:t=1	!	!LO:TX:a:Bi:t=1	!	!LO:TX:a:Bi:t=1.	!	!LO:TX:a:Bi:t=1.	!	!	!	!	!	!
4E-\	.	4ee- 4g/	.	4gg 4b- 4e-/	.	2.r	.	2.r	.	2.r	.	2.r	.	4G/	4e-\	4b-\	4gg\	.
4r	.	4r	.	4r	.	.	.	.	.	.	.	.	.	4r	4r	4r	4r	.
4r	.	4r	.	4r	.	.	.	.	.	.	.	.	.	4r	4r	4r	4r	.
==	==	==	==	==	==	==	==	==	==	==	==	==	==	==	==	==	==	==
*-	*-	*-	*-	*-	*-	*-	*-	*-	*-	*-	*-	*-	*-	*-	*-	*-	*-	*-
!!title: @{OTL};
!!!RDF**kern: > = above
!!!RDF**kern: < = below
!!!RDF**dynam: > = "dim", fontstyle= "bold-italic"
!!!RDF**dynam: < = "cresc", fontstyle= "bold-italic"
!!!RDF**kern: | = vertical stroke
!!!RDF**kern: N = linked
!!!RDF**kern: i = editorial accidental
!!!RDF**kern: l = terminal long
!!!AIN: 1 alto 1 clars 2 cor 2 empty 1 organ 1 soprn 1 tenor 2 violn
!!!ENC: Andrzej Kubiczek
!!!END: 2020-07-10
!!!EED: Wojciech Jakubiak-Danek
!!!EST: 2021-12-29
!!!URL-scan: http://repozytorium.nifc.pl/skany/pl-cz-nut--iii-107
!!!ONB-nifc: UWAGA: części Vesperae: Dixit Dominus, Tecum principium, Iudicabit, De torrente, Gloria patri, Sicut erat, Magnificat, Et exsultavit, Quia fecit, Deposuit potentes, Gloria patri, Sicut erat
